X: 28937
T: Namesake, The
R: jig
M: 6/8
K: Bminor
|:FED E2E|GBA FED|FED E2E|DEF A,B,D|
FED E2E|GBG FED|EFG FGA|1 B,BB, BAG:|2 B,BB, BGF||
|:Bed fg/f/e|dfa bfa|gfd eBe|def ABc|
Bed fg/f/e|dfa bfa|bga fge|fed cBA:|

